X: 38225
T: Square Pint, The
R: polka
M: 2/4
K: Eminor
|:F2 ED/E/|FD DE|FA/F/ ED|(3E/F/G/A Bd|
F2 ED/E/|FD Dd|Bc/B/ AF|1 E2 DE:|2 E2 E/D/B,||
|:D2 DE/F/|AF AB|E2 ED/E/|FE FA|D2 DE/F/|
AF AB|1 dB AF|ED B,A,:|2 dB Ad|BA FE||

